assets/facce/min.svg

<svg width="113" height="128" viewBox="0 0 113 128" fill="none" xmlns="http://www.w3.org/2000/svg">
<path d="M11.989 60.9164C9.24594 73.4602 11.0168 90.684 12.1903 99.1653C12.6563 102.533 14.262 105.607 16.6437 108.033L30.2687 121.91C33.4653 125.166 37.8365 127 42.3992 127H55.4436C58.3978 127 61.3011 126.23 63.8672 124.766L86.8267 111.669C91.1662 109.193 94.194 104.953 95.091 100.039C97.5178 86.743 102.452 59.1869 105.108 40.6806C108.582 16.4704 66.3841 16.0026 63.1568 16.0022C63.0129 16.0022 62.8996 16.0019 62.7557 16.001C60.4863 15.9871 40.059 16.0293 29.8474 21.9256C13.7356 31.2285 15.4663 45.0149 11.989 60.9164Z" fill="white" stroke="black" stroke-width="2" stroke-linecap="round" stroke-linejoin="round"/>
<path d="M64.3105 60.5L65.3105 56.5L87.3105 60.5V63L64.3105 60.5Z" fill="black" stroke="black"/>
<path d="M39.3089 56.4416L39.1944 60.5632L16.8493 61.3982L16.3106 58.9569L39.3089 56.4416Z" fill="black" stroke="black"/>
<path d="M62.8105 71.4996C64.9772 69.833 71.1105 67.4996 78.3105 71.4996" stroke="black" stroke-width="2"/>
<path d="M23.3105 71.2086C25.4772 69.5419 31.6105 67.2086 38.8105 71.2086" stroke="black" stroke-width="2"/>
<path d="M5.81103 23.5C-4.69447 36.7461 4.34024 71.0067 10.811 79C14.311 52 9.31101 49.7385 25.9122 49.7385C25.9122 39 32.9089 25.1876 32.9089 25.1876C32.9089 25.1876 35.3111 20.5 40.3312 19.4781C37.5907 28.1565 41.4731 43.2677 43.7569 49.7385H71.1626H73.8111H77.3111H81.3111H84.8111C106.279 50.652 101.811 54 99.3111 79C113.311 60 113.835 42.887 108.126 27.4714C102.416 12.0557 75.7302 2.92047 68.3078 1.20762C62.3699 -0.162666 56.6985 5.58491 54.605 8.62998C51.9406 6.15586 45.6982 1.20762 42.0441 1.20762C37.4765 1.20762 18.9429 6.94242 5.81103 23.5Z" fill="black" stroke="black" stroke-width="2" stroke-linecap="round" stroke-linejoin="round"/>
<path d="M45.3108 89.5C42.9775 89.6667 38.4108 90.6 38.8108 93C39.2108 95.4 43.3108 95 45.3108 94.5C46.3108 95 48.9108 95.7 51.3108 94.5C53.4775 95.1667 57.8108 95.8 57.8108 93C57.8108 90.2 54.8108 89.5 53.3108 89.5" stroke="black" stroke-width="2"/>
<path d="M65.3105 102C58.9105 104.8 42.3105 104.833 34.8105 104.5C38.3105 114.5 45.8105 115.5 53.3105 114.5C59.3105 113.7 63.8105 105.833 65.3105 102Z" stroke="black" stroke-width="2"/>
</svg>

<?xml version="1.0" encoding="utf-8"?>
<!-- Generator: Adobe Illustrator 28.1.0, SVG Export Plug-In . SVG Version: 6.00 Build 0)  -->
<svg version="1.1" id="Livello_1" xmlns="http://www.w3.org/2000/svg" xmlns:xlink="http://www.w3.org/1999/xlink" x="0px" y="0px"
	 viewBox="0 0 113 128" style="enable-background:new 0 0 113 128;" xml:space="preserve">
<style type="text/css">
	.st0{fill:#FFFFFF;stroke:#690000;stroke-width:2;stroke-linecap:round;stroke-linejoin:round;}
	.st1{fill:#690000;stroke:#690000;}
	.st2{fill:none;stroke:#690000;stroke-width:2;}
	.st3{fill:#690000;stroke:#690000;stroke-width:2;stroke-linecap:round;stroke-linejoin:round;}
</style>
<path class="st0" d="M12,60.9c-2.7,12.5-1,29.8,0.2,38.2c0.5,3.4,2.1,6.4,4.5,8.9l13.6,13.9c3.2,3.3,7.6,5.1,12.1,5.1h13
	c3,0,5.9-0.8,8.4-2.2l23-13.1c4.3-2.5,7.4-6.7,8.3-11.6c2.4-13.3,7.4-40.9,10-59.4c3.5-24.2-38.7-24.7-42-24.7c-0.1,0-0.3,0-0.4,0
	c-2.3,0-22.7,0-32.9,5.9C13.7,31.2,15.5,45,12,60.9z"/>
<path class="st1" d="M64.3,60.5l1-4l22,4V63L64.3,60.5z"/>
<path class="st1" d="M39.3,56.4l-0.1,4.1l-22.3,0.8L16.3,59L39.3,56.4z"/>
<path class="st2" d="M62.8,71.5c2.2-1.7,8.3-4,15.5,0"/>
<path class="st2" d="M23.3,71.2c2.2-1.7,8.3-4,15.5,0"/>
<path class="st3" d="M5.8,23.5C-4.7,36.7,4.3,71,10.8,79c3.5-27-1.5-29.3,15.1-29.3c0-10.7,7-24.6,7-24.6s2.4-4.7,7.4-5.7
	c-2.7,8.7,1.1,23.8,3.4,30.3h27.4h2.6h3.5h4h3.5c21.5,0.9,17,4.3,14.5,29.3c14-19,14.5-36.1,8.8-51.5C102.4,12.1,75.7,2.9,68.3,1.2
	c-5.9-1.4-11.6,4.4-13.7,7.4C51.9,6.2,45.7,1.2,42,1.2C37.5,1.2,18.9,6.9,5.8,23.5z"/>
<path class="st2" d="M45.3,89.5c-2.3,0.2-6.9,1.1-6.5,3.5c0.4,2.4,4.5,2,6.5,1.5c1,0.5,3.6,1.2,6,0c2.2,0.7,6.5,1.3,6.5-1.5
	s-3-3.5-4.5-3.5"/>
<path class="st2" d="M65.3,102c-6.4,2.8-23,2.8-30.5,2.5c3.5,10,11,11,18.5,10C59.3,113.7,63.8,105.8,65.3,102z"/>
</svg>
